X:215
T: Donncha's Slide
C: BB
R: slide
Q: 400
M: 12/8
L: 1/8
K: D
B|:"D"A2 F "Bm"B2 F "G"dcd "Em"efg | "D"f2 d a2 f "Em"e3-edB |
"D"A2 F "Bm"B2 F "G"dcd "Em"efg |1 "D"a2 f "A7"gfe "D"d3 dcB :|
|2 "D"a2 f "A7"gfe "D"d3-d2 |: e | "D"def def "A"cde cde |
"D"def "Em"edB "A"ABA AFG | "D"A2 B def "Em"e2 f gfe |"D"f2 a "A7"gfe "D"d3-d2 :|
%%%%%%%%%%%%%%%%%%%%%%%%%%%%%%%%%%%%%%%%%%%
